public/assets/images/interface/plus.svg

<svg width="48" height="48" viewBox="0 0 24 24" xmlns="http://www.w3.org/2000/svg">
	<path fill="#FFF" d="M11 5v6H5v2h6v6h2v-6h6v-2h-6V5h-2z" />
</svg>

<svg xmlns="http://www.w3.org/2000/svg" version="1" viewBox="0 0 24 24" enable-background="new 0 0 24 24" width="96" height="96" style="fill: rgb(255, 255, 255);">
    <path style="text-indent:0;text-align:start;line-height:normal;text-transform:none;block-progression:tb;-inkscape-font-specification:Bitstream Vera Sans" d="M 11 5 L 11 11 L 5 11 L 5 13 L 11 13 L 11 19 L 13 19 L 13 13 L 19 13 L 19 11 L 13 11 L 13 5 L 11 5 z" color="#000" overflow="visible" enable-background="accumulate" font-family="Bitstream Vera Sans"/>
</svg>
